X:102
T:Picking of Sticks
W:As per 4th editions.
M:6/4
L:1/4
K:G
%
G | B>c d d>c d | c2 A A2 A | A>B c d>e d | B2 G G2 G |
B>c d d>e d | f2 A A2 A | B>c d d>e f | g2 G G2 :|
%
%
